hosted/assets/icon/widgets/dark-mode/double-slider.svg

<svg width="50" height="50" viewBox="0 0 50 50" fill="none" xmlns="http://www.w3.org/2000/svg">
<rect x="12" y="19" width="6" height="12" fill="#4A6BB7"/>
<rect x="33" y="19" width="7" height="12" fill="#4A6BB7"/>
<path fill-rule="evenodd" clip-rule="evenodd" d="M32.4685 23.989L32.4685 19.989C32.4685 18.3444 33.824 16.989 35.4685 16.989L37.4685 16.989C39.1131 16.989 40.4685 18.3444 40.4685 19.989V23.989L47.4685 23.989C47.9451 23.9773 48.3631 24.3054 48.4685 24.7702C48.4802 24.8093 48.492 24.8523 48.4998 24.8952C48.5271 25.1804 48.4295 25.4655 48.2302 25.6765C48.0349 25.8835 47.7576 26.0007 47.4685 25.989L40.4685 25.989V29.989C40.4685 31.6335 39.1131 32.989 37.4685 32.989L35.4685 32.989C33.824 32.989 32.4685 31.6335 32.4685 29.989L32.4685 25.989L18.9888 25.989V29.989C18.9888 31.6335 17.6333 32.989 15.9888 32.989H13.9888C12.3442 32.989 10.9888 31.6335 10.9888 29.989V25.989H8.17627C8.11377 25.9968 8.05127 25.9968 7.98877 25.989L2.98877 25.989C2.62939 25.9929 2.29346 25.8054 2.10986 25.4929C1.93017 25.1804 1.93017 24.7975 2.10986 24.485C2.29346 24.1725 2.62939 23.985 2.98877 23.989H7.98877C8.05127 23.9811 8.11377 23.9811 8.17627 23.989H10.9888V19.989C10.9888 18.3444 12.3442 16.989 13.9888 16.989H15.9888C17.6333 16.989 18.9888 18.3444 18.9888 19.989V23.989L32.4685 23.989ZM16.9888 29.989L16.9888 19.989C16.9888 19.4225 16.5552 18.989 15.9888 18.989H13.9888C13.4224 18.989 12.9888 19.4225 12.9888 19.989L12.9888 29.989C12.9888 30.5554 13.4224 30.989 13.9888 30.989H15.9888C16.5552 30.989 16.9888 30.5554 16.9888 29.989ZM38.4684 19.989V29.989C38.4684 30.5554 38.0348 30.989 37.4684 30.989H35.4684C34.902 30.989 34.4684 30.5554 34.4684 29.989V19.989C34.4684 19.4226 34.902 18.989 35.4684 18.989L37.4684 18.989C38.0348 18.989 38.4684 19.4226 38.4684 19.989Z" fill="white"/>
</svg>

<svg width="50" height="50" fill="none" xmlns="http://www.w3.org/2000/svg"><path fill="#4A6BB7" d="M12 19h6v12h-6zm21 0h7v12h-7z"/><path fill-rule="evenodd" clip-rule="evenodd" d="M32.468 23.989v-4c0-1.645 1.356-3 3-3h2c1.645 0 3 1.355 3 3v4h7a1 1 0 011 .781c.012.04.024.082.032.125a1 1 0 01-1.032 1.094h-7v4c0 1.645-1.355 3-3 3h-2c-1.644 0-3-1.355-3-3v-4h-13.48v4c0 1.645-1.355 3-3 3h-2c-1.644 0-3-1.355-3-3v-4H8.177a.754.754 0 01-.187 0h-5a1.006 1.006 0 01-.88-.496 1.01 1.01 0 010-1.008c.184-.313.52-.5.88-.496h5a.745.745 0 01.187 0h2.813v-4c0-1.645 1.355-3 3-3h2c1.644 0 3 1.355 3 3v4h13.48zm-15.48 6v-10c0-.567-.433-1-1-1h-2c-.566 0-1 .433-1 1v10c0 .566.434 1 1 1h2c.567 0 1-.434 1-1zm21.48-10v10c0 .566-.433 1-1 1h-2c-.566 0-1-.434-1-1v-10c0-.566.434-1 1-1h2c.567 0 1 .434 1 1z" fill="#fff"/></svg>
